humanity-icon-theme/Humanity/mimes/16/text-html.svg

<?xml version="1.0" encoding="UTF-8" standalone="no"?>
<!-- Created with Inkscape (http://www.inkscape.org/) -->

<svg
   xmlns:dc="http://purl.org/dc/elements/1.1/"
   xmlns:cc="http://creativecommons.org/ns#"
   xmlns:rdf="http://www.w3.org/1999/02/22-rdf-syntax-ns#"
   xmlns:svg="http://www.w3.org/2000/svg"
   xmlns="http://www.w3.org/2000/svg"
   xmlns:xlink="http://www.w3.org/1999/xlink"
   xmlns:sodipodi="http://sodipodi.sourceforge.net/DTD/sodipodi-0.dtd"
   xmlns:inkscape="http://www.inkscape.org/namespaces/inkscape"
   width="16px"
   height="16px"
   id="svg3055"
   version="1.1"
   inkscape:version="0.47 r22583"
   sodipodi:docname="text-html.svg">
  <defs
     id="defs3057">
    <linearGradient
       x1="25.132275"
       y1="0.98520643"
       x2="25.132275"
       y2="47.013336"
       id="linearGradient2517"
       xlink:href="#linearGradient3600"
       gradientUnits="userSpaceOnUse"
       gradientTransform="matrix(0.3142872,0,0,0.3259268,0.4571068,-0.3222465)" />
    <linearGradient
       id="linearGradient3600">
      <stop
         id="stop3602"
         style="stop-color:#f4f4f4;stop-opacity:1"
         offset="0" />
      <stop
         id="stop3604"
         style="stop-color:#dbdbdb;stop-opacity:1"
         offset="1" />
    </linearGradient>
    <linearGradient
       x1="-51.786404"
       y1="50.786446"
       x2="-51.786404"
       y2="2.9062471"
       id="linearGradient2519"
       xlink:href="#linearGradient3104"
       gradientUnits="userSpaceOnUse"
       gradientTransform="matrix(0.2537858,0,0,0.3050189,19.128982,-0.6854851)" />
    <linearGradient
       id="linearGradient3104">
      <stop
         id="stop3106"
         style="stop-color:#aaaaaa;stop-opacity:1"
         offset="0" />
      <stop
         id="stop3108"
         style="stop-color:#c8c8c8;stop-opacity:1"
         offset="1" />
    </linearGradient>
    <linearGradient
       x1="24"
       y1="1.9999999"
       x2="24"
       y2="46.01725"
       id="linearGradient2511"
       xlink:href="#linearGradient3211"
       gradientUnits="userSpaceOnUse"
       gradientTransform="matrix(0.2727267,0,0,0.302325,1.4545607,0.7441991)" />
    <linearGradient
       id="linearGradient3211">
      <stop
         id="stop3213"
         style="stop-color:#ffffff;stop-opacity:1"
         offset="0" />
      <stop
         id="stop3215"
         style="stop-color:#ffffff;stop-opacity:0"
         offset="1" />
    </linearGradient>
    <linearGradient
       id="linearGradient8589">
      <stop
         id="stop8591"
         style="stop-color:#fefefe;stop-opacity:1"
         offset="0" />
      <stop
         id="stop8593"
         style="stop-color:#cbcbcb;stop-opacity:1"
         offset="1" />
    </linearGradient>
    <linearGradient
       y2="5.4565363"
       x2="36.358372"
       y1="8.0590115"
       x1="32.892288"
       gradientTransform="matrix(0.3091956,0,0,0.3766935,0.4761461,0.1071779)"
       gradientUnits="userSpaceOnUse"
       id="linearGradient3053"
       xlink:href="#linearGradient8589"
       inkscape:collect="always" />
  </defs>
  <sodipodi:namedview
     id="base"
     pagecolor="#ffffff"
     bordercolor="#666666"
     borderopacity="1.0"
     inkscape:pageopacity="0.0"
     inkscape:pageshadow="2"
     inkscape:zoom="22.197802"
     inkscape:cx="8"
     inkscape:cy="8"
     inkscape:current-layer="layer1"
     showgrid="true"
     inkscape:grid-bbox="true"
     inkscape:document-units="px"
     inkscape:window-width="603"
     inkscape:window-height="478"
     inkscape:window-x="417"
     inkscape:window-y="165"
     inkscape:window-maximized="0" />
  <metadata
     id="metadata3060">
    <rdf:RDF>
      <cc:Work
         rdf:about="">
        <dc:format>image/svg+xml</dc:format>
        <dc:type
           rdf:resource="http://purl.org/dc/dcmitype/StillImage" />
        <dc:title></dc:title>
      </cc:Work>
    </rdf:RDF>
  </metadata>
  <g
     id="layer1"
     inkscape:label="Layer 1"
     inkscape:groupmode="layer">
    <g
       id="layer1-9">
      <path
         d="m 1.5,0.4999664 c 2.5206756,0 5.9205035,0 8.4411815,0 0.4421795,0.1617935 2.9385125,2.1328451 3.5588315,3.4091211 0,3.906246 2.6e-5,7.6846975 2.6e-5,11.5909465 -3.6666935,0 -8.3333464,0 -12.000039,0 0,-5.000023 0,-10.0000465 0,-15.0000676 z"
         id="path4160"
         style="fill:url(#linearGradient2517);fill-opacity:1;stroke:url(#linearGradient2519);stroke-width:0.99992162;stroke-linecap:butt;stroke-linejoin:round;stroke-miterlimit:4;stroke-opacity:1;stroke-dasharray:none;stroke-dashoffset:0;display:inline"
         sodipodi:nodetypes="cccccc" />
      <path
         d="m 12.5,4.2150736 c 0,3.3853981 0,6.8995284 0,10.2849274 -2.999999,0 -6.9999991,0 -10,0 0,-4.333337 0,-8.6666684 0,-13.000001 2.0623569,0 5.1738997,0 7.2362577,0"
         id="path2435"
         style="opacity:0.6;fill:none;stroke:url(#linearGradient2511);stroke-width:0.99999994;stroke-linecap:butt;stroke-linejoin:miter;stroke-miterlimit:4;stroke-opacity:1;stroke-dasharray:none;stroke-dashoffset:0;display:inline"
         sodipodi:nodetypes="ccccc" />
      <path
         d="M 9.2941205,0.8409023 C 10.142028,3.6448055 9,5.0341186 9,5.0341186 c 0,0 1.892807,-1.2514061 4.171354,-0.1023041 1.942856,0.9798084 0.03608,-1.008024 -0.04146,-1.129046 C 12.586944,2.9552643 10.707454,1.1696619 10.025256,0.8725867 9.9696235,0.8483603 9.5814385,0.8409023 9.2941205,0.8409023 z"
         id="path3330"
         style="fill:#c1c1c1;fill-opacity:1;fill-rule:evenodd;stroke:none;display:inline" />
      <path
         d="M 9.2941205,0.8409023 C 10.281641,0.8409023 10,4.0219212 10,4.0219212 c 0,0 2.272472,-0.5007314 3.171354,0.9098933 0.162882,0.2556128 0.03608,-1.008024 -0.04146,-1.129046 C 12.586944,2.9552643 10.707454,1.1696619 10.025256,0.8725867 9.9696235,0.8483603 9.5814385,0.8409023 9.2941205,0.8409023 z"
         id="path4474"
         style="fill:url(#linearGradient3053);fill-opacity:1;fill-rule:evenodd;stroke:none;display:inline" />
    </g>
    <path
       style="opacity:0.4;fill:#666666;fill-opacity:1;stroke:none"
       d="M 3.1191806,9.0000004 4.8783778,6.736 4.2905415,6.0000004 2,9.0000004 4.3513515,12 5,11.327999 3.1191806,9.0000004 z"
       id="path2882"
       sodipodi:nodetypes="ccccccc" />
    <path
       style="opacity:0.4;color:#000000;fill:#000000;fill-opacity:1;fill-rule:evenodd;stroke:none;stroke-width:3;marker:none;visibility:visible;display:inline;overflow:visible;enable-background:accumulate"
       d="m 8,7.0000004 c 0,0 1,0 1,0 C 9,7.0000004 7,11 7,11 7,11 6.198539,11 6,11 6,11 8,7.0000004 8,7.0000004 z"
       id="rect2888"
       sodipodi:nodetypes="ccccc" />
    <path
       style="opacity:0.4;fill:#666666;fill-opacity:1;stroke:none"
       d="M 11.885135,8.944 10.121622,6.736 10.709459,6.0000004 13,8.944 10.648649,12 10,11.327999 11.885135,8.944 z"
       id="path2882-6" />
  </g>
</svg>

<?xml version="1.0" encoding="UTF-8" standalone="no"?>
<!-- Created with Inkscape (http://www.inkscape.org/) -->
<svg id="svg3055" xmlns:rdf="http://www.w3.org/1999/02/22-rdf-syntax-ns#" xmlns="http://www.w3.org/2000/svg" height="16px" width="16px" version="1.1" xmlns:cc="http://creativecommons.org/ns#" xmlns:xlink="http://www.w3.org/1999/xlink" xmlns:dc="http://purl.org/dc/elements/1.1/">
 <defs id="defs3057">
  <linearGradient id="linearGradient2517" y2="47.013" gradientUnits="userSpaceOnUse" x2="25.132" gradientTransform="matrix(.31429 0 0 .32593 .45711 -.32225)" y1=".98521" x1="25.132">
   <stop id="stop3602" style="stop-color:#f4f4f4" offset="0"/>
   <stop id="stop3604" style="stop-color:#dbdbdb" offset="1"/>
  </linearGradient>
  <linearGradient id="linearGradient2519" y2="2.9062" gradientUnits="userSpaceOnUse" x2="-51.786" gradientTransform="matrix(.25379 0 0 .30502 19.129 -.68549)" y1="50.786" x1="-51.786">
   <stop id="stop3106" style="stop-color:#aaa" offset="0"/>
   <stop id="stop3108" style="stop-color:#c8c8c8" offset="1"/>
  </linearGradient>
  <linearGradient id="linearGradient2511" y2="46.017" gradientUnits="userSpaceOnUse" x2="24" gradientTransform="matrix(.27273 0 0 .30232 1.4546 .74420)" y1="2" x1="24">
   <stop id="stop3213" style="stop-color:#fff" offset="0"/>
   <stop id="stop3215" style="stop-color:#fff;stop-opacity:0" offset="1"/>
  </linearGradient>
  <linearGradient id="linearGradient3053" y2="5.4565" gradientUnits="userSpaceOnUse" y1="8.059" gradientTransform="matrix(.30920 0 0 .37669 .47615 .10718)" x2="36.358" x1="32.892">
   <stop id="stop8591" style="stop-color:#fefefe" offset="0"/>
   <stop id="stop8593" style="stop-color:#cbcbcb" offset="1"/>
  </linearGradient>
 </defs>
 <metadata id="metadata3060">
  <rdf:RDF>
   <cc:Work rdf:about="">
    <dc:format>image/svg+xml</dc:format>
    <dc:type rdf:resource="http://purl.org/dc/dcmitype/StillImage"/>
    <dc:title/>
   </cc:Work>
  </rdf:RDF>
 </metadata>
 <g id="layer1">
  <g id="layer1-9">
   <path id="path4160" style="stroke-linejoin:round;stroke:url(#linearGradient2519);stroke-width:.99992;fill:url(#linearGradient2517)" d="m1.5 0.49997h8.4412c0.44218 0.16179 2.9385 2.1328 3.5588 3.4091 0 3.9062 0.000026 7.6847 0.000026 11.591h-12v-15z"/>
   <path id="path2435" style="opacity:.6;stroke:url(#linearGradient2511);fill:none" d="m12.5 4.2151v10.285h-10v-13h7.2363"/>
   <path id="path3330" style="fill:#c1c1c1;fill-rule:evenodd" d="m9.2941 0.8409c0.8479 2.8039-0.2941 4.1932-0.2941 4.1932s1.8928-1.2514 4.1714-0.1023c1.9429 0.97981 0.03608-1.008-0.04146-1.129-0.543-0.8475-2.423-2.6331-3.105-2.9302-0.0554-0.02424-0.4436-0.0317-0.7309-0.0317z"/>
   <path id="path4474" style="fill:url(#linearGradient3053);fill-rule:evenodd" d="m9.2941 0.8409c0.9879 0 0.7059 3.181 0.7059 3.181s2.2725-0.50073 3.1714 0.90989c0.16288 0.25561 0.03608-1.008-0.04146-1.129-0.543-0.8475-2.423-2.6331-3.105-2.9302-0.0554-0.02424-0.4436-0.0317-0.7309-0.0317z"/>
  </g>
  <path id="path2882" style="opacity:.4;fill:#666" d="m3.1192 9 1.7592-2.264-0.5879-0.736-2.2905 3 2.3514 3 0.6486-0.672-1.8808-2.328z"/>
  <path id="rect2888" style="opacity:.4;color:#000000;fill-rule:evenodd" d="m8 7h1l-2 4h-1l2-4z"/>
  <path id="path2882-6" style="opacity:.4;fill:#666" d="m11.885 8.944-1.763-2.208 0.587-0.736 2.291 2.944-2.351 3.056-0.649-0.672 1.885-2.384z"/>
 </g>
</svg>
